X:92
T:Ena tocka d\"aka
R:sl-polska
A:Sm{\aa}land
Z:id:hn-sp-92
M:3/4
L:1/16
K:Am
e2(ef) e2(ef) e2d2 | c2B2 A4 E4 |
w:en-a* tock-a* d\"a-ka vill eg ha san,
A3B c2d2 e2^f2 | g2^f2 e4 e4 |
w:som f\"or-st{\aa}r att tyck-a om mig bra san,
e3c c2e2 d2c2 | d3B B2d2 c2B2 |
w:som \"ar huld o tro-gen, o kan g{\aa} p{\aa} kro-gen, 
A3G A2B2 c2d2 | e2G2 A4 A4 :|
w:o kan ta en sup s{\aa} v\"al som ja, san.
|: e4 A4 G4 | c3d e4 e4 | e2(ef) e2(ef) e2d2 | c2B2 A4 A4 :|
w:hej hopp-san, i ga-lopp-san, in-te* gif-ter* jag mig \"an s{\aa} br{\aa}tt san.
"^Sofias variant p{\aa} sista delen"
|: e4 A4 G4 | c3d e4 e4 | g3f e2d2 c2d2 |[1 c2B2 A4 G4 :|
[2 c2B2 A4 A4 ||
W:ist\"allet f\"or "huld och trogen" har Sofia "redobogen"
W:
W:
W:
W:
W:
W:

